components/Icon/icons/redux.svg

<svg width="54" height="50" viewBox="0 0 54 50" fill="none" xmlns="http://www.w3.org/2000/svg">
<g clip-path="url(#clip0)">
<path d="M36.81 34.7814C38.7705 34.5809 40.2577 32.9121 40.1901 30.9092C40.1227 28.9066 38.4324 27.3043 36.4043 27.3043H36.2692C34.1733 27.3711 32.5509 29.1068 32.6185 31.1762C32.6862 32.1777 33.0917 33.0455 33.7001 33.6463C31.4016 38.1193 27.8863 41.3904 22.6132 44.1275C19.0302 45.9967 15.312 46.6643 11.5939 46.1971C8.55167 45.7965 6.18553 44.4615 4.69803 42.2582C2.53485 38.9871 2.3321 35.4488 4.15744 31.9107C5.44199 29.3738 7.46987 27.5045 8.75442 26.5699C8.48402 25.702 8.07832 24.2334 7.87557 23.1654C-1.92703 30.175 -0.912881 39.6547 2.0617 44.1275C4.29254 47.4656 8.82207 49.535 13.8247 49.535C15.1767 49.535 16.5287 49.4014 17.8809 49.0678C26.5343 47.3988 33.0919 42.325 36.81 34.7814V34.7814ZM48.7084 26.5033C43.5704 20.5617 35.9988 17.2906 27.3455 17.2906H26.2639C25.6554 16.0889 24.3709 15.2877 22.9512 15.2877H22.8159C20.7204 15.3545 19.098 17.0902 19.1655 19.1598C19.2331 21.1625 20.9232 22.7648 22.9512 22.7648H23.0863C24.5736 22.698 25.8582 21.7633 26.399 20.4949H27.6159C32.7538 20.4949 37.6212 21.9635 42.0156 24.8342C45.3957 27.0373 47.8295 29.908 49.1815 33.3793C50.3307 36.1832 50.2631 38.9203 49.0462 41.257C47.1534 44.7951 43.9761 46.7311 39.7846 46.7311C37.0804 46.7311 34.5115 45.9299 33.1593 45.3291C32.4158 45.9967 31.0636 47.0648 30.1171 47.7326C33.0242 49.0676 35.9988 49.802 38.8381 49.802C45.3281 49.802 50.128 46.2637 51.9533 42.7256C53.9138 38.8535 53.7785 32.1777 48.7084 26.5033V26.5033ZM14.3655 35.916C14.4332 37.9189 16.1232 39.5209 18.1513 39.5209H18.2866C20.3824 39.4543 22.0047 37.7184 21.9371 35.649C21.8696 33.6461 20.1794 32.0441 18.1513 32.0441H18.0162C17.8809 32.0441 17.678 32.0441 17.5431 32.1107C14.7712 27.5711 13.622 22.6311 14.0277 17.2904C14.2979 13.2848 15.6501 9.81332 18.0162 6.94262C19.9767 4.47254 23.7624 3.2709 26.3315 3.2043C33.4974 3.0707 36.5394 11.8828 36.7424 15.4211C37.6212 15.6213 39.1085 16.0887 40.1227 16.4225C39.3113 5.60779 32.5509 0 26.0611 0C19.9767 0 14.3655 4.33934 12.1345 10.7482C9.02481 19.2932 11.0529 27.5045 14.8387 33.9801C14.5008 34.4473 14.2979 35.1818 14.3655 35.9162V35.916Z" fill="#764ABC"/>
</g>
<defs>
<clipPath id="clip0">
<rect width="53.125" height="50" fill="white"/>
</clipPath>
</defs>
</svg>

<svg xmlns="http://www.w3.org/2000/svg" width="100%" height="100%" fill="none" 
viewBox="0 0 54 50" xmlns:v="https://vecta.io/nano"><g clip-path="url(#A)"><path d="M36.81 34.781c1.96-.2 3.448-1.869 3.38-3.872s-1.758-3.605-3.786-3.605h-.135c-2.096.067-3.718 1.802-3.651 3.872.068 1.002.473 1.869 1.082 2.47-2.299 4.473-5.814 7.744-11.087 10.481-3.583 1.869-7.301 2.537-11.019 2.07-3.042-.401-5.408-1.736-6.896-3.939-2.163-3.271-2.366-6.809-.541-10.348 1.285-2.537 3.312-4.406 4.597-5.341-.27-.868-.676-2.337-.879-3.404-9.803 7.01-8.788 16.489-5.814 20.962 2.231 3.338 6.76 5.407 11.763 5.407 1.352 0 2.704-.134 4.056-.467 8.653-1.669 15.211-6.743 18.929-14.286h0zm11.898-8.278c-5.138-5.942-12.71-9.213-21.363-9.213h-1.082c-.608-1.202-1.893-2.003-3.313-2.003h-.135c-2.095.067-3.718 1.803-3.65 3.872.068 2.003 1.758 3.605 3.786 3.605h.135c1.487-.067 2.772-1.001 3.313-2.27h1.217c5.138 0 10.005 1.469 14.4 4.339 3.38 2.203 5.814 5.074 7.166 8.545 1.149 2.804 1.082 5.541-.135 7.878-1.893 3.538-5.07 5.474-9.262 5.474a17.48 17.48 0 0 1-6.625-1.402c-.744.668-2.096 1.736-3.042 2.404 2.907 1.335 5.882 2.069 8.721 2.069 6.49 0 11.29-3.538 13.115-7.076 1.961-3.872 1.825-10.548-3.245-16.222h0zm-34.343 9.413c.068 2.003 1.758 3.605 3.786 3.605h.135c2.096-.067 3.718-1.802 3.651-3.872-.068-2.003-1.758-3.605-3.786-3.605h-.135c-.135 0-.338 0-.473.067-2.772-4.54-3.921-9.48-3.515-14.82.27-4.006 1.622-7.477 3.989-10.348 1.96-2.47 5.746-3.672 8.315-3.738 7.166-.134 10.208 8.679 10.411 12.217.879.2 2.366.668 3.38 1.001C39.311 5.608 32.551 0 26.061 0c-6.084 0-11.696 4.339-13.927 10.748-3.11 8.545-1.082 16.756 2.704 23.232-.338.467-.541 1.202-.473 1.936h0z" fill="#764abc"/></g><defs><clipPath id="A"><path fill="#fff" d="M0 0h53.125v50H0z"/></clipPath></defs></svg>
